Catalina-light/actions/16/stroke-join-round.svg

<svg width="16" height="16" viewBox="0 0 16 16" xmlns="http://www.w3.org/2000/svg">
<defs>
<style id="current-color-scheme" type="text/css">.ColorScheme-Text { color:#5c616c; } .ColorScheme-Highlight { color:#5294e2; }</style>
</defs>
<path class="ColorScheme-Text" d="m4 2c-1.108 0-2 0.892-2 2v10h4v-8h8v-4h-10zm0 1h9v2h-8v8h-2v-9c0-0.554 0.446-1 1-1zm4 5v6h4v-2h2v-4h-6zm1 1h4v2h-2v2h-2v-4z" fill="currentColor"/>
</svg>

<svg xmlns="http://www.w3.org/2000/svg" width="16" height="16" viewBox="0 0 16 16">
 <defs>
  <style id="current-color-scheme" type="text/css">
   .ColorScheme-Text { color:#5c616c; } .ColorScheme-Highlight { color:#5294e2; }
  </style>
 </defs>
 <path style="fill:currentColor" class="ColorScheme-Text" d="M 4 2 C 2.892 2 2 2.892 2 4 L 2 14 L 6 14 L 6 6 L 14 6 L 14 2 L 4 2 z M 4 3 L 13 3 L 13 5 L 5 5 L 5 13 L 3 13 L 3 4 C 3 3.446 3.446 3 4 3 z M 8 8 L 8 14 L 12 14 L 12 12 L 14 12 L 14 8 L 8 8 z M 9 9 L 13 9 L 13 11 L 11 11 L 11 13 L 9 13 L 9 9 z"/>
</svg>
